Hatter-kde/actions/22/transform-shear-right.svg

<?xml version="1.0" encoding="UTF-8"?>
<svg viewBox="0 0 22 22" xmlns="http://www.w3.org/2000/svg">
 <defs id="defs3051">
  <style id="current-color-scheme" type="text/css">.ColorScheme-Text {
        color:#363636;
      }</style>
 </defs>
 <path class="ColorScheme-Text" d="m6 3v5h1v-4h11v8h-2v1h2 1v-1-9h-1-11-1zm-2 6-0.90039 9-0.099609 1h1 9 1l0.90039-9 0.099609-1h-1-9-1zm0.90039 1h9l-0.80078 8h-9l0.80078-8z" fill="currentColor"/>
</svg>

<svg xmlns="http://www.w3.org/2000/svg" viewBox="0 0 22 22">
  <defs id="defs3051">
    <style type="text/css" id="current-color-scheme">
      .ColorScheme-Text {
        color:#363636;
      }
      </style>
  </defs>
 <path 
    style="fill:currentColor;fill-opacity:1;stroke:none" 
    d="M 6 3 L 6 8 L 7 8 L 7 4 L 18 4 L 18 12 L 16 12 L 16 13 L 18 13 L 19 13 L 19 12 L 19 3 L 18 3 L 7 3 L 6 3 z M 4 9 L 3.0996094 18 L 3 19 L 4 19 L 13 19 L 14 19 L 14.900391 10 L 15 9 L 14 9 L 5 9 L 4 9 z M 4.9003906 10 L 13.900391 10 L 13.099609 18 L 4.0996094 18 L 4.9003906 10 z "
	class="ColorScheme-Text"
    />  
</svg>
